src/pos-icons/file-plus-outline.svg

<svg height="24" viewBox="0 0 24 24" width="24" xmlns="http://www.w3.org/2000/svg"><path d="m12 14v-3h-2v3h-3v2h3v3h2v-3h3v-2m-1-12h-8a2 2 0 0 0 -2 2v16a2 2 0 0 0 2 2h12a2 2 0 0 0 2-2v-12zm4 18h-12v-16h7v5h5"/></svg>

<?xml version="1.0" encoding="UTF-8"?><!DOCTYPE svg PUBLIC "-//W3C//DTD SVG 1.1//EN" "http://www.w3.org/Graphics/SVG/1.1/DTD/svg11.dtd"><svg xmlns="http://www.w3.org/2000/svg" xmlns:xlink="http://www.w3.org/1999/xlink" version="1.1" id="mdi-file-plus-outline" width="24" height="24" viewBox="0 0 24 24"><path d="M12,14V11H10V14H7V16H10V19H12V16H15V14M14,2H6A2,2 0 0,0 4,4V20A2,2 0 0,0 6,22H18A2,2 0 0,0 20,20V8L14,2M18,20H6V4H13V9H18" /></svg>
